X: 1
T:Pink Eyed Lassie -- Reel
M:2/4
L:1/16
R:reel
B:Ryan's Mammoth Collection
N:320
Z:Contributed by Ray Davies,  ray:davies99.freeserve.co.uk
K:D
u((3ABc)|\
dcdA GFED | GEFD {F}EDB,A, | DFEG F"4"AGB | Adc"4"e df"0"eg |
fdAF GFED | DEFD {F}EDB,A, | DFEG FAGB | Adc"4"e d2z2 :|
|:((3ABc)|\
dcdf "0"edcA | dfaf gfge | dcdf ecAc | BAGB .A2((3ABc) |
dcdf edcA | dfaf gfge | afge fd"4"ec | Agfe d2z2 :|
